packages/blockchain-info-components/src/Images/img/banks/bank-logo-wells-fargo.svg

<svg fill="none" height="32" viewBox="0 0 32 32" width="32" xmlns="http://www.w3.org/2000/svg" xmlns:xlink="http://www.w3.org/1999/xlink"><clipPath id="a"><path d="m0 0h32v32h-32z"/></clipPath><g clip-path="url(#a)"><path d="m0 32h32v-32h-32z" fill="#b31e30"/><path d="m11.5331 10.0722v1.5725h.3596c.4539 0 .6598-.2207.6598-.8383v-.0967h.5283v2.4405h-.5283v-.1042c0-.6126-.2059-.8457-.6598-.8457h-.3596v1.7585h1.508c.687 0 .935-.4539 1.0169-1.322h.5481v1.8825h-4.95302v-.5605h.41912c.2605 0 .3994-.072.3994-.5258v-2.9342c0-.3274-.1489-.4266-.49857-.4266h-.15377c-.35964 0-.53077.0844-.65727.4589l-1.3666 3.9882h-1.03922l-.7912-2.5993h-.01486l-.87801 2.5993h-1.05162l-1.41869-4.1792c-.06203-.2059-.16866-.2679-.45636-.2679h-.10417v-.55801h2.18757v.55801h-.31747c-.16618 0-.23315.0992-.23315.1985 0 .0744.0273.1686.06697.2728l.94745 2.7927h.01486l.90281-2.6265-.1265-.3572c-.07688-.2232-.22817-.2803-.44892-.2803h-.17857v-.55801h2.25949v.55801h-.39932c-.15377 0-.2133.067-.2133.1662 0 .0769.03721.1836.06204.2555l.82839 2.7927h.01486l.96233-2.7282c.02978-.0893.05702-.1637.05702-.258 0-.119-.05702-.2282-.32243-.2282h-.36459v-.55801h6.8653v1.71131h-.563c-.1141-.7242-.1786-1.1533-1.1831-1.1533zm8.2269 4.4471v-1.8825h-.5779c-.0768.8606-.2331 1.322-1.0168 1.322h-1.1385v-3.5393c0-.2778.1141-.3473.4465-.3473h.4241v-.55801h-2.7655v.55801h.4365c.3026 0 .4043.0992.4043.3274v3.2243c0 .2629-.1438.3349-.3571.3349h-.4837v.5605zm5.1366 0v-1.8825h-.5804c-.0769.8606-.2381 1.322-1.0119 1.322h-1.1409v-3.5393c0-.2778.1141-.3473.4464-.3473h.4217v-.55801h-2.768v.55801h.439c.3051 0 .4068.0992.4068.3274v3.2243c0 .2629-.1463.3349-.3572.3349h-.4886v.5605zm3.8096-4.62812c-.0471-.04712-.5084-.52581-1.4087-.52581-.945 0-1.8999.47869-1.8999 1.50553 0 .9301.7416 1.3542 1.5948 1.5377.2828.0595.4514.0918.7094.1464.6399.1364 1.0665.3298 1.0665.7738 0 .3373-.3572.6994-1.0641.6994-.9871 0-1.5724-.5506-1.694-1.3914h-.5803v1.8825h.5134l.1661-.4489c.1216.1066.6027.5977 1.5179.5977 1.1658 0 2.0462-.5184 2.0462-1.5427 0-.9921-.8209-1.4187-1.8229-1.6196-.1786-.0446-.3423-.0719-.5258-.1141-.6226-.1339-1.0219-.2877-1.0219-.7341 0-.3869.4092-.6523 1.0243-.6523.9252 0 1.2823.5878 1.4733 1.2202h.563v-1.71131h-.4067zm-22.97189 12.43092v-.563h-.377c-.34971 0-.47868-.1042-.47868-.3869v-1.3641h.31003c.46876 0 .67214.2033.67214.7341v.1662h.52581v-2.3042h-.52581v.0993c0 .3893-.14138.7465-.6275.7465h-.35467v-1.5774h.98465c1.10867 0 1.22523.558 1.29964 1.1508h.54069v-1.7089h-4.73724v.5581h.501c.22571 0 .3522.1017.3522.2827v3.2342c0 .2109-.11409.3696-.38196.3696h-.47124v.563zm20.96049-5.1589c-1.6419 0-2.7283 1.1484-2.7283 2.6539 0 1.503 1.0864 2.6613 2.7283 2.6613 1.6369 0 2.7258-1.1583 2.7258-2.6613 0-1.5055-1.0889-2.6539-2.7258-2.6539zm0 .5903c1.1855 0 1.5402.9847 1.5402 2.0636s-.3547 2.066-1.5402 2.066c-1.193 0-1.5452-.9871-1.5452-2.066s.3522-2.0636 1.5452-2.0636zm-4.6182-.0297c-.1091-.0968-.5779-.5606-1.503-.5606-1.4807 0-2.4108 1.1285-2.4108 2.6539 0 1.5377.9449 2.6613 2.4108 2.6613.9424 0 1.4534-.4316 1.5699-.5382l.2803.3819h.5134v-1.7361c0-.2952.1092-.3746.4018-.3746h.1389v-.5605h-2.3116v.5605h.3423c.248 0 .3993.1116.3993.3547v.2927c0 .5729-.3522.9722-1.1186.9722-.9598 0-1.441-.8631-1.441-2.0139 0-1.1335.4812-2.0016 1.4113-2.0016.9697 0 1.2996.9028 1.4112 1.2079h.6201v-1.7089h-.5283zm-4.1643 3.4227v.1364c0 .8631-.4118 1.1955-1.0368 1.1955-.7316 0-.9772-.3522-.9772-1.0343v-.2604c0-.8607-.3671-1.2079-1.2054-1.2079h-.3968v1.513c0 .2009.0918.2703.31.2703h.5506v.563h-5.0001v-.563h.5555c.1538 0 .2109-.0372.2109-.1265 0-.0471-.0149-.124-.0447-.2058-.0273-.067-.2629-.7119-.2629-.7119h-1.78575s-.22073.5953-.25794.6945c-.02483.0744-.04464.1364-.04464.2083 0 .1067.08929.1414.23811.1414h.53077v.563h-2.35623v-.563c.39932 0 .6523-.057.79368-.4068l1.59727-4.0378h.95983l1.637 4.0378c.1364.3547.3943.4068.7937.4068h.2033c.2158 0 .3125-.0694.3125-.2703v-3.3434c0-.2009-.0769-.2728-.3125-.2728h-.5258v-.5581h3.2888c1.0913 0 1.6047.5159 1.6047 1.2972 0 .9698-.9648 1.1607-1.4162 1.1855v.0124c.5283.0397.9747.258.9747 1.0293v.2927c0 .5134.1092.6275.2902.6275.1786 0 .2729-.1414.2729-.4762v-.1364zm-7.5027-.9871-.67467-1.823h-.02229l-.67462 1.823zm5.831-1.5155c0-.439-.315-.7713-1.0144-.7713h-.9301v1.5452h.9301c.6448 0 1.0144-.2902 1.0144-.7739z" fill="#ffcc02"/></g></svg>

<svg width="32" height="32" viewBox="0 0 32 32" fill="none" xmlns="http://www.w3.org/2000/svg">
<g clip-path="url(#clip0)">
<path d="M0 32H32V0H0V32Z" fill="#B31E30"/>
<path d="M11.5331 10.0722V11.6447H11.8927C12.3466 11.6447 12.5525 11.424 12.5525 10.8064V10.7097H13.0808V13.1502H12.5525V13.046C12.5525 12.4334 12.3466 12.2003 11.8927 12.2003H11.5331V13.9588H13.0411C13.7281 13.9588 13.9761 13.5049 14.058 12.6368H14.6061V14.5193H9.65308V13.9588H10.0722C10.3327 13.9588 10.4716 13.8868 10.4716 13.433V10.4988C10.4716 10.1714 10.3227 10.0722 9.97303 10.0722H9.81926C9.45962 10.0722 9.28849 10.1566 9.16199 10.5311L7.79539 14.5193H6.75617L5.96497 11.92H5.95011L5.0721 14.5193H4.02048L2.60179 10.3401C2.53976 10.1342 2.43313 10.0722 2.14543 10.0722H2.04126V9.51419H4.22883V10.0722H3.91136C3.74518 10.0722 3.67821 10.1714 3.67821 10.2707C3.67821 10.3451 3.70551 10.4393 3.74518 10.5435L4.69263 13.3362H4.70749L5.6103 10.7097L5.4838 10.3525C5.40692 10.1293 5.25563 10.0722 5.03488 10.0722H4.85631V9.51419H7.1158V10.0722H6.71648C6.56271 10.0722 6.50318 10.1392 6.50318 10.2384C6.50318 10.3153 6.54039 10.422 6.56522 10.4939L7.39361 13.2866H7.40847L8.3708 10.5584C8.40058 10.4691 8.42782 10.3947 8.42782 10.3004C8.42782 10.1814 8.3708 10.0722 8.10539 10.0722H7.7408V9.51419H14.6061V11.2255H14.0431C13.929 10.5013 13.8645 10.0722 12.86 10.0722H11.5331ZM19.76 14.5193V12.6368H19.1821C19.1053 13.4974 18.949 13.9588 18.1653 13.9588H17.0268V10.4195C17.0268 10.1417 17.1409 10.0722 17.4733 10.0722H17.8974V9.51419H15.1319V10.0722H15.5684C15.871 10.0722 15.9727 10.1714 15.9727 10.3996V13.6239C15.9727 13.8868 15.8289 13.9588 15.6156 13.9588H15.1319V14.5193H19.76ZM24.8966 14.5193V12.6368H24.3162C24.2393 13.4974 24.0781 13.9588 23.3043 13.9588H22.1634V10.4195C22.1634 10.1417 22.2775 10.0722 22.6098 10.0722H23.0315V9.51419H20.2635V10.0722H20.7025C21.0076 10.0722 21.1093 10.1714 21.1093 10.3996V13.6239C21.1093 13.8868 20.963 13.9588 20.7521 13.9588H20.2635V14.5193H24.8966ZM28.7062 9.89118C28.6591 9.84406 28.1978 9.36537 27.2975 9.36537C26.3525 9.36537 25.3976 9.84406 25.3976 10.8709C25.3976 11.801 26.1392 12.2251 26.9924 12.4086C27.2752 12.4681 27.4438 12.5004 27.7018 12.555C28.3417 12.6914 28.7683 12.8848 28.7683 13.3288C28.7683 13.6661 28.4111 14.0282 27.7042 14.0282C26.7171 14.0282 26.1318 13.4776 26.0102 12.6368H25.4299V14.5193H25.9433L26.1094 14.0704C26.231 14.177 26.7121 14.6681 27.6273 14.6681C28.7931 14.6681 29.6735 14.1497 29.6735 13.1254C29.6735 12.1333 28.8526 11.7067 27.8506 11.5058C27.672 11.4612 27.5083 11.4339 27.3248 11.3917C26.7022 11.2578 26.3029 11.104 26.3029 10.6576C26.3029 10.2707 26.7121 10.0053 27.3272 10.0053C28.2524 10.0053 28.6095 10.5931 28.8005 11.2255H29.3635V9.51419H28.9568L28.7062 9.89118ZM5.73431 22.3221V21.7591H5.35731C5.0076 21.7591 4.87863 21.6549 4.87863 21.3722V20.0081H5.18866C5.65742 20.0081 5.8608 20.2114 5.8608 20.7422V20.9084H6.38661V18.6042H5.8608V18.7035C5.8608 19.0928 5.71942 19.45 5.2333 19.45H4.87863V17.8726H5.86328C6.97195 17.8726 7.08851 18.4306 7.16292 19.0234H7.70361V17.3145H2.96637V17.8726H3.46737C3.69308 17.8726 3.81957 17.9743 3.81957 18.1553V21.3895C3.81957 21.6004 3.70548 21.7591 3.43761 21.7591H2.96637V22.3221H5.73431ZM26.6948 17.1632C25.0529 17.1632 23.9665 18.3116 23.9665 19.8171C23.9665 21.3201 25.0529 22.4784 26.6948 22.4784C28.3317 22.4784 29.4206 21.3201 29.4206 19.8171C29.4206 18.3116 28.3317 17.1632 26.6948 17.1632ZM26.6948 17.7535C27.8803 17.7535 28.235 18.7382 28.235 19.8171C28.235 20.896 27.8803 21.8831 26.6948 21.8831C25.5018 21.8831 25.1496 20.896 25.1496 19.8171C25.1496 18.7382 25.5018 17.7535 26.6948 17.7535ZM22.0766 17.7238C21.9675 17.627 21.4987 17.1632 20.5736 17.1632C19.0929 17.1632 18.1628 18.2917 18.1628 19.8171C18.1628 21.3548 19.1077 22.4784 20.5736 22.4784C21.516 22.4784 22.027 22.0468 22.1435 21.9402L22.4238 22.3221H22.9372V20.586C22.9372 20.2908 23.0464 20.2114 23.339 20.2114H23.4779V19.6509H21.1663V20.2114H21.5086C21.7566 20.2114 21.9079 20.323 21.9079 20.5661V20.8588C21.9079 21.4317 21.5557 21.831 20.7893 21.831C19.8295 21.831 19.3483 20.9679 19.3483 19.8171C19.3483 18.6836 19.8295 17.8155 20.7596 17.8155C21.7293 17.8155 22.0592 18.7183 22.1708 19.0234H22.7909V17.3145H22.2626L22.0766 17.7238ZM17.9123 21.1465V21.2829C17.9123 22.146 17.5005 22.4784 16.8755 22.4784C16.1439 22.4784 15.8983 22.1262 15.8983 21.4441V21.1837C15.8983 20.323 15.5312 19.9758 14.6929 19.9758H14.2961V21.4888C14.2961 21.6897 14.3879 21.7591 14.6061 21.7591H15.1567V22.3221H10.1566V21.7591H10.7121C10.8659 21.7591 10.923 21.7219 10.923 21.6326C10.923 21.5855 10.9081 21.5086 10.8783 21.4268C10.851 21.3598 10.6154 20.7149 10.6154 20.7149H8.82965C8.82965 20.7149 8.60892 21.3102 8.57171 21.4094C8.54688 21.4838 8.52707 21.5458 8.52707 21.6177C8.52707 21.7244 8.61636 21.7591 8.76518 21.7591H9.29595V22.3221H6.93972V21.7591C7.33904 21.7591 7.59202 21.7021 7.7334 21.3523L9.33067 17.3145H10.2905L11.9275 21.3523C12.0639 21.707 12.3218 21.7591 12.7212 21.7591H12.9245C13.1403 21.7591 13.237 21.6897 13.237 21.4888V18.1454C13.237 17.9445 13.1601 17.8726 12.9245 17.8726H12.3987V17.3145H15.6875C16.7788 17.3145 17.2922 17.8304 17.2922 18.6117C17.2922 19.5815 16.3274 19.7724 15.876 19.7972V19.8096C16.4043 19.8493 16.8507 20.0676 16.8507 20.8389V21.1316C16.8507 21.645 16.9599 21.7591 17.1409 21.7591C17.3195 21.7591 17.4138 21.6177 17.4138 21.2829V21.1465H17.9123ZM10.4096 20.1594L9.73493 18.3364H9.71264L9.03802 20.1594H10.4096ZM16.2406 18.6439C16.2406 18.2049 15.9256 17.8726 15.2262 17.8726H14.2961V19.4178H15.2262C15.871 19.4178 16.2406 19.1276 16.2406 18.6439Z" fill="#FFCC02"/>
</g>
<defs>
<clipPath id="clip0">
<rect width="32" height="32" fill="white"/>
</clipPath>
</defs>
</svg>
